**kern	**kern	**dynam
*part1	*part1	*part1
*staff2	*staff1	*
*I"Piano	*	*
*clefF4	*clefG2	*
*k[f#c#g#]	*k[f#c#g#]	*
=1	=1	=1
*	*^	*
2.BB 2.G#	2.ee	4r	.
.	.	4B 4e 4g#	.
.	.	4B 4e 4g#	.
=	=	=	=
2.GG#	2.b	4r	.
.	.	4B 4e 4g#	.
.	.	4B 4e 4g#	.
=	=	=	=
2.FF#	4r	2.c#	.
.	4e 4a	.	.
.	4e 4a	.	.
=	=	=	=
2.BB	4r	2B	.
.	4d#X 4g#	.	.
.	4d# 4f#	4A	.
=	=	=	=
2.EE	4r	2.G#	.
.	4dn 4e	.	.
.	4d 4e	.	.
=	=	=	=
2E	4r	2.d	>
.	4e 4g# 4b	.	.
4r	4e 4g# 4b	.	]
=	=	=	=
2.AA 2.E	2.cc#	4r	.
.	.	4c# 4e 4a	.
.	.	4c# 4e 4a	.
*	*v	*v	*
=	=	=
*-	*-	*-
!!!system-decoration: {(s1,s2)}
